images/email.svg

<svg xmlns="http://www.w3.org/2000/svg" width="256" height="256" viewBox="0 0 256 256"><style type="text/css">.st0{fill:none;stroke:#00BBE6;stroke-width:6;stroke-miterlimit:10;} .st1{fill:#00BBE6;}</style><circle class="st0" cx="128" cy="128" r="124.2"/><path class="st1" d="M71.9 162.2v-62.3c0-.1.1-.8.3-2.1l36.7 31.4-36.6 35.2c-.3-1-.4-1.7-.4-2.2zm4.8-68.8c.5-.2 1.1-.3 1.8-.3h98.9c.6 0 1.3.1 2 .3l-36.8 31.6-4.9 3.9-9.7 7.9-9.6-7.9-4.9-3.9-36.8-31.6zm.2 75.2l37-35.4 14.3 11.6 14.3-11.6 37 35.4c-.6.2-1.2.3-1.8.3h-99.1c-.6 0-1.2 0-1.7-.3zm70.3-39.4l36.6-31.4c.2.6.3 1.3.3 2.1v62.3c0 .6-.1 1.4-.3 2.1l-36.6-35.1z"/></svg>

<?xml version="1.0" encoding="utf-8"?>
<!-- Generator: Adobe Illustrator 20.1.0, SVG Export Plug-In . SVG Version: 6.00 Build 0)  -->
<svg version="1.1" id="Layer_1" xmlns="http://www.w3.org/2000/svg" xmlns:xlink="http://www.w3.org/1999/xlink" x="0px" y="0px"
	 width="256px" height="256px" viewBox="0 0 256 256" style="enable-background:new 0 0 256 256;" xml:space="preserve">
<style type="text/css">
	.st0{fill:none;stroke:#00BBE6;stroke-width:6;stroke-miterlimit:10;}
	.st1{fill:#00BBE6;}
</style>
<g>
	<circle class="st0" cx="128" cy="128" r="124.2"/>
	<path class="st1" d="M71.9,162.2V99.9c0-0.1,0.1-0.8,0.3-2.1l36.7,31.4l-36.6,35.2C72,163.4,71.9,162.7,71.9,162.2L71.9,162.2z
		 M76.7,93.4c0.5-0.2,1.1-0.3,1.8-0.3h98.9c0.6,0,1.3,0.1,2,0.3L142.6,125l-4.9,3.9l-9.7,7.9l-9.6-7.9l-4.9-3.9L76.7,93.4z
		 M76.9,168.6l37-35.4l14.3,11.6l14.3-11.6l37,35.4c-0.6,0.2-1.2,0.3-1.8,0.3H78.6C78,168.9,77.4,168.9,76.9,168.6z M147.2,129.2
		l36.6-31.4c0.2,0.6,0.3,1.3,0.3,2.1v62.3c0,0.6-0.1,1.4-0.3,2.1L147.2,129.2z"/>
</g>
</svg>
